packages/ui-icons/svg/Line/ms-word.svg

<svg viewBox="0 0 1920 1920" version="1.1" xmlns="http://www.w3.org/2000/svg">
    <g stroke="none" stroke-width="1" fill-rule="evenodd">
        <path d="M1251.65412,0 C1296.15294,0 1339.86118,18.0705882 1371.37176,49.5811765 L1371.37176,49.5811765 L1700.59529,378.804706 C1732.55765,410.767059 1750.17647,453.345882 1750.17647,498.522353 L1750.17647,498.522353 L1750.17647,1920 L169,1920 L169,0 Z M1185.47059,112.941176 L281.941176,112.941176 L281.941176,1807.05882 L1637.23529,1807.05882 L1637.23529,564.705882 L1185.47059,564.705882 L1185.47059,112.941176 Z M1298.41176,136.32 L1298.41176,451.764706 L1613.85647,451.764706 L1298.41176,136.32 Z"/>
        <path d="M959.588235 338.823529L959.588235 790.588235 507.823529 790.588235 507.823529 338.823529 959.588235 338.823529zM846.647059 451.764706L620.764706 451.764706 620.764706 677.647059 846.647059 677.647059 846.647059 451.764706zM507.823529 1016.47059L1411.35294 1016.47059 1411.35294 903.529412 507.823529 903.529412zM507.823529 1468.23529L1298.41176 1468.23529 1298.41176 1355.29412 507.823529 1355.29412zM507.823529 1242.35294L1185.47059 1242.35294 1185.47059 1129.41176 507.823529 1129.41176z"/>
    </g>
</svg>

<svg viewBox="0 0 1920 1920" xmlns="http://www.w3.org/2000/svg">
    <g fill-rule="evenodd">
        <path d="M1251.654 0c44.499 0 88.207 18.07 119.718 49.581l329.223 329.224c31.963 31.962 49.581 74.54 49.581 119.717V1920H169V0Zm-66.183 112.941H281.94V1807.06h1355.294V564.706H1185.47V112.94Zm112.94 23.379v315.445h315.445L1298.412 136.32Z"/>
        <path d="M959.588 338.824v451.764H507.824V338.824h451.764zm-112.94 112.94H620.764v225.883h225.882V451.765zm-338.824 564.707h903.529V903.529h-903.53zm0 451.764h790.588v-112.94H507.824zm0-225.882h677.647v-112.941H507.824z"/>
    </g>
</svg>
